images/icons/kickstarter.svg

<svg fill="none" height="24" viewBox="0 0 24 24" width="24" xmlns="http://www.w3.org/2000/svg" xmlns:xlink="http://www.w3.org/1999/xlink"><clipPath id="a"><path d="m0 0h24v24h-24z"/></clipPath><mask id="b" height="24" maskUnits="userSpaceOnUse" width="24" x="0" y="0"><path d="m24 0h-24v24h24z" fill="#fff"/></mask><g clip-path="url(#a)"><g mask="url(#b)"><path d="m18.7495 12.0062 2.1822-2.16473c.5374-.5337.9639-1.16844 1.255-1.86767.291-.69923.4408-1.44913.4408-2.20651 0-.75739-.1498-1.50729-.4408-2.20652-.2911-.69923-.7176-1.33397-1.255-1.86766-1.0924-1.079047-2.5661-1.68413389-4.1016-1.68413389s-3.0091.60508689-4.1016 1.68413389l-.7938.78967c-.5355-.76752-1.2489-1.39395-2.07922-1.82574-.83031-.431787-1.75284-.65608794-2.68871-.65372563-3.20022 0-5.79677 2.57910563-5.79677 5.75857563v12.48041c0 3.1794 2.59655 5.7585 5.79677 5.7585.93587.0024 1.8584-.2219 2.68871-.6537.83032-.4318 1.54372-1.0582 2.07922-1.8257l.7938.7896c1.0925 1.0791 2.5661 1.6842 4.1016 1.6842s3.0092-.6051 4.1016-1.6842c.5374-.5337.9639-1.1684 1.255-1.8676.291-.6993.4408-1.4492.4408-2.2065 0-.7574-.1498-1.5073-.4408-2.2066-.2911-.6992-.7176-1.3339-1.255-1.8676l-2.1822-2.159z" fill="#fff"/></g></g></svg>

<svg width="24" height="24" viewBox="0 0 24 24" fill="none" xmlns="http://www.w3.org/2000/svg">
<g clip-path="url(#clip0_824_278)">
<path d="M18.7495 12.0062L20.9317 9.84147C21.4691 9.30777 21.8956 8.67303 22.1867 7.9738C22.4777 7.27457 22.6275 6.52467 22.6275 5.76729C22.6275 5.0099 22.4777 4.26 22.1867 3.56077C21.8956 2.86154 21.4691 2.2268 20.9317 1.69311C19.8393 0.614063 18.3656 0.00897611 16.8301 0.00897611C15.2946 0.00897611 13.821 0.614063 12.7285 1.69311L11.9347 2.48278C11.3992 1.71526 10.6858 1.08883 9.85548 0.65704C9.02517 0.225253 8.10264 0.000952061 7.16677 0.00331437C3.96655 0.00331437 1.37 2.58242 1.37 5.76189V18.2423C1.37 21.4217 3.96655 24.0008 7.16677 24.0008C8.10264 24.0032 9.02517 23.7789 9.85548 23.3471C10.6858 22.9153 11.3992 22.2889 11.9347 21.5214L12.7285 22.311C13.821 23.3901 15.2946 23.9952 16.8301 23.9952C18.3656 23.9952 19.8393 23.3901 20.9317 22.311C21.4691 21.7773 21.8956 21.1426 22.1867 20.4434C22.4777 19.7441 22.6275 18.9942 22.6275 18.2369C22.6275 17.4795 22.4777 16.7296 22.1867 16.0303C21.8956 15.3311 21.4691 14.6964 20.9317 14.1627L18.7495 12.0037V12.0062Z" fill="white"/>
</g>
<defs>
<clipPath id="clip0_824_278">
<rect width="24" height="24" fill="white"/>
</clipPath>
</defs>
</svg>
